src/backspace.svg

<?xml version="1.0" ?><svg fill="none" height="28" viewBox="0 0 28 28" width="28" xmlns="http://www.w3.org/2000/svg"><path d="M14.0783 11.9751C13.7956 11.6956 13.7956 11.2423 14.0783 10.9628L14.3342 10.7097C14.6169 10.4301 15.0752 10.4301 15.3579 10.7097L17.4054 12.7346L19.4526 10.71C19.7353 10.4304 20.1936 10.4304 20.4763 10.71L20.7322 10.9631C21.0149 11.2426 21.0149 11.6959 20.7322 11.9755L18.685 14L20.7322 16.0245C21.0149 16.3041 21.0149 16.7574 20.7322 17.0369L20.4763 17.29C20.1936 17.5696 19.7353 17.5696 19.4526 17.29L17.4054 15.2654L15.3579 17.2903C15.0752 17.5699 14.6169 17.5699 14.3342 17.2903L14.0783 17.0372C13.7956 16.7577 13.7956 16.3044 14.0783 16.0249L16.1258 14L14.0783 11.9751Z" fill="black"/><path clip-rule="evenodd" d="M8.06096 5.5C7.46476 5.5 6.89965 5.76598 6.5197 6.22544L1.46069 12.343C0.874809 13.0515 0.84738 14.0681 1.39421 14.8072L6.48659 21.6896C6.86374 22.1993 7.46026 22.5 8.09434 22.5H25C26.1046 22.5 27 21.6046 27 20.5V7.5C27 6.39543 26.1046 5.5 25 5.5H8.06096ZM8.06096 7.5L25 7.5V20.5H8.09434L3.00196 13.6176L8.06096 7.5Z" fill="black" fill-rule="evenodd"/></svg>

<svg fill="none" height="28" viewBox="0 0 28 28" width="28" xmlns="http://www.w3.org/2000/svg"><path d="M14.078 11.975a.71.71 0 010-1.012l.256-.253a.73.73 0 011.024 0l2.047 2.025 2.048-2.025a.73.73 0 011.023 0l.256.253a.71.71 0 010 1.013L18.685 14l2.047 2.024a.71.71 0 010 1.013l-.256.253a.73.73 0 01-1.023 0l-2.048-2.025-2.047 2.025a.73.73 0 01-1.024 0l-.256-.253a.71.71 0 010-1.012L16.126 14l-2.048-2.025z" fill="#000"/><path clip-rule="evenodd" d="M8.061 5.5a2 2 0 00-1.541.725l-5.06 6.118a2 2 0 00-.066 2.464l5.093 6.883a2 2 0 001.607.81H25a2 2 0 002-2v-13a2 2 0 00-2-2H8.061zm0 2H25v13H8.094l-5.092-6.882L8.061 7.5z" fill="#000" fill-rule="evenodd"/></svg>
